bernoullicharts/1_1_x_even_parity__bound.svg

<?xml version="1.0" encoding="utf-8" standalone="no"?>
<!DOCTYPE svg PUBLIC "-//W3C//DTD SVG 1.1//EN"
  "http://www.w3.org/Graphics/SVG/1.1/DTD/svg11.dtd">
<!-- Created with matplotlib (https://matplotlib.org/) -->
<svg height="345.6pt" version="1.1" viewBox="0 0 460.8 345.6" width="460.8pt" xmlns="http://www.w3.org/2000/svg" xmlns:xlink="http://www.w3.org/1999/xlink">
 <defs>
  <style type="text/css">
*{stroke-linecap:butt;stroke-linejoin:round;}
  </style>
 </defs>
 <g id="figure_1">
  <g id="patch_1">
   <path d="M 0 345.6 
L 460.8 345.6 
L 460.8 0 
L 0 0 
z
" style="fill:#ffffff;"/>
  </g>
  <g id="axes_1">
   <g id="patch_2">
    <path d="M 57.6 307.584 
L 414.72 307.584 
L 414.72 41.472 
L 57.6 41.472 
z
" style="fill:#ffffff;"/>
   </g>
   <g id="matplotlib.axis_1">
    <g id="xtick_1">
     <g id="line2d_1">
      <defs>
       <path d="M 0 0 
L 0 3.5 
" id="m64ac597bd7" style="stroke:#000000;stroke-width:0.8;"/>
      </defs>
      <g>
       <use style="stroke:#000000;stroke-width:0.8;" x="73.800255" xlink:href="#m64ac597bd7" y="307.584"/>
      </g>
     </g>
     <g id="text_1">
      <text style="font-family:DejaVu Sans;font-size:10px;font-style:normal;font-weight:normal;text-anchor:middle;" transform="rotate(-0, 73.800255, 322.182437)" x="73.800255" y="322.182437">0.0</text>
     </g>
    </g>
    <g id="xtick_2">
     <g id="line2d_2">
      <g>
       <use style="stroke:#000000;stroke-width:0.8;" x="138.744153" xlink:href="#m64ac597bd7" y="307.584"/>
      </g>
     </g>
     <g id="text_2">
      <text style="font-family:DejaVu Sans;font-size:10px;font-style:normal;font-weight:normal;text-anchor:middle;" transform="rotate(-0, 138.744153, 322.182437)" x="138.744153" y="322.182437">0.2</text>
     </g>
    </g>
    <g id="xtick_3">
     <g id="line2d_3">
      <g>
       <use style="stroke:#000000;stroke-width:0.8;" x="203.688051" xlink:href="#m64ac597bd7" y="307.584"/>
      </g>
     </g>
     <g id="text_3">
      <text style="font-family:DejaVu Sans;font-size:10px;font-style:normal;font-weight:normal;text-anchor:middle;" transform="rotate(-0, 203.688051, 322.182437)" x="203.688051" y="322.182437">0.4</text>
     </g>
    </g>
    <g id="xtick_4">
     <g id="line2d_4">
      <g>
       <use style="stroke:#000000;stroke-width:0.8;" x="268.631949" xlink:href="#m64ac597bd7" y="307.584"/>
      </g>
     </g>
     <g id="text_4">
      <text style="font-family:DejaVu Sans;font-size:10px;font-style:normal;font-weight:normal;text-anchor:middle;" transform="rotate(-0, 268.631949, 322.182437)" x="268.631949" y="322.182437">0.6</text>
     </g>
    </g>
    <g id="xtick_5">
     <g id="line2d_5">
      <g>
       <use style="stroke:#000000;stroke-width:0.8;" x="333.575847" xlink:href="#m64ac597bd7" y="307.584"/>
      </g>
     </g>
     <g id="text_5">
      <text style="font-family:DejaVu Sans;font-size:10px;font-style:normal;font-weight:normal;text-anchor:middle;" transform="rotate(-0, 333.575847, 322.182437)" x="333.575847" y="322.182437">0.8</text>
     </g>
    </g>
    <g id="xtick_6">
     <g id="line2d_6">
      <g>
       <use style="stroke:#000000;stroke-width:0.8;" x="398.519745" xlink:href="#m64ac597bd7" y="307.584"/>
      </g>
     </g>
     <g id="text_6">
      <text style="font-family:DejaVu Sans;font-size:10px;font-style:normal;font-weight:normal;text-anchor:middle;" transform="rotate(-0, 398.519745, 322.182437)" x="398.519745" y="322.182437">1.0</text>
     </g>
    </g>
    <g id="text_7">
     <text style="font-family:DejaVu Sans;font-size:10px;font-style:normal;font-weight:normal;text-anchor:middle;" transform="rotate(-0, 236.16, 335.860562)" x="236.16" y="335.860562">Input Coin's Heads Probability (λ)</text>
    </g>
   </g>
   <g id="matplotlib.axis_2">
    <g id="ytick_1">
     <g id="line2d_7">
      <defs>
       <path d="M 0 0 
L -3.5 0 
" id="m493b72b8b2" style="stroke:#000000;stroke-width:0.8;"/>
      </defs>
      <g>
       <use style="stroke:#000000;stroke-width:0.8;" x="57.6" xlink:href="#m493b72b8b2" y="295.48806"/>
      </g>
     </g>
     <g id="text_8">
      <text style="font-family:DejaVu Sans;font-size:10px;font-style:normal;font-weight:normal;text-anchor:end;" transform="rotate(-0, 50.6, 299.287279)" x="50.6" y="299.287279">0</text>
     </g>
    </g>
    <g id="ytick_2">
     <g id="line2d_8">
      <g>
       <use style="stroke:#000000;stroke-width:0.8;" x="57.6" xlink:href="#m493b72b8b2" y="247.423199"/>
      </g>
     </g>
     <g id="text_9">
      <text style="font-family:DejaVu Sans;font-size:10px;font-style:normal;font-weight:normal;text-anchor:end;" transform="rotate(-0, 50.6, 251.222417)" x="50.6" y="251.222417">20</text>
     </g>
    </g>
    <g id="ytick_3">
     <g id="line2d_9">
      <g>
       <use style="stroke:#000000;stroke-width:0.8;" x="57.6" xlink:href="#m493b72b8b2" y="199.358337"/>
      </g>
     </g>
     <g id="text_10">
      <text style="font-family:DejaVu Sans;font-size:10px;font-style:normal;font-weight:normal;text-anchor:end;" transform="rotate(-0, 50.6, 203.157556)" x="50.6" y="203.157556">40</text>
     </g>
    </g>
    <g id="ytick_4">
     <g id="line2d_10">
      <g>
       <use style="stroke:#000000;stroke-width:0.8;" x="57.6" xlink:href="#m493b72b8b2" y="151.293476"/>
      </g>
     </g>
     <g id="text_11">
      <text style="font-family:DejaVu Sans;font-size:10px;font-style:normal;font-weight:normal;text-anchor:end;" transform="rotate(-0, 50.6, 155.092695)" x="50.6" y="155.092695">60</text>
     </g>
    </g>
    <g id="ytick_5">
     <g id="line2d_11">
      <g>
       <use style="stroke:#000000;stroke-width:0.8;" x="57.6" xlink:href="#m493b72b8b2" y="103.228615"/>
      </g>
     </g>
     <g id="text_12">
      <text style="font-family:DejaVu Sans;font-size:10px;font-style:normal;font-weight:normal;text-anchor:end;" transform="rotate(-0, 50.6, 107.027833)" x="50.6" y="107.027833">80</text>
     </g>
    </g>
    <g id="ytick_6">
     <g id="line2d_12">
      <g>
       <use style="stroke:#000000;stroke-width:0.8;" x="57.6" xlink:href="#m493b72b8b2" y="55.163753"/>
      </g>
     </g>
     <g id="text_13">
      <text style="font-family:DejaVu Sans;font-size:10px;font-style:normal;font-weight:normal;text-anchor:end;" transform="rotate(-0, 50.6, 58.962972)" x="50.6" y="58.962972">100</text>
     </g>
    </g>
    <g id="text_14">
     <text style="font-family:DejaVu Sans;font-size:10px;font-style:normal;font-weight:normal;text-anchor:middle;" transform="rotate(-90, 25.432813, 174.528)" x="25.432813" y="174.528">Coin Flips Needed</text>
    </g>
   </g>
   <g id="line2d_13">
    <path clip-path="url(#pe3b612b037)" d="M 73.832727 293.085538 
L 77.112066 293.157117 
L 80.391405 293.226346 
L 83.670744 293.293323 
L 86.950083 293.358138 
L 90.229421 293.420879 
L 93.50876 293.481627 
L 96.788099 293.540463 
L 100.067438 293.59746 
L 103.346777 293.65269 
L 106.626116 293.706221 
L 109.905455 293.758119 
L 113.184793 293.808444 
L 116.464132 293.857256 
L 119.743471 293.904611 
L 123.02281 293.950563 
L 126.302149 293.995164 
L 129.581488 294.038462 
L 132.860826 294.080504 
L 136.140165 294.121336 
L 139.419504 294.161 
L 142.698843 294.199538 
L 145.978182 294.236988 
L 149.257521 294.273389 
L 152.53686 294.308776 
L 155.816198 294.343185 
L 159.095537 294.376648 
L 162.374876 294.409197 
L 165.654215 294.440864 
L 168.933554 294.471676 
L 172.212893 294.501663 
L 175.492231 294.530851 
L 178.77157 294.559266 
L 182.050909 294.586934 
L 185.330248 294.613878 
L 188.609587 294.640121 
L 191.888926 294.665685 
L 195.168264 294.690592 
L 198.447603 294.714862 
L 201.726942 294.738515 
L 205.006281 294.76157 
L 208.28562 294.784046 
L 211.564959 294.805959 
L 214.844298 294.827327 
L 218.123636 294.848166 
L 221.402975 294.868492 
L 224.682314 294.88832 
L 227.961653 294.907665 
L 231.240992 294.926542 
L 234.520331 294.944962 
L 237.799669 294.962941 
L 241.079008 294.98049 
L 244.358347 294.997622 
L 247.637686 295.014348 
L 250.917025 295.030681 
L 254.196364 295.046631 
L 257.475702 295.062208 
L 260.755041 295.077424 
L 264.03438 295.092288 
L 267.313719 295.10681 
L 270.593058 295.120999 
L 273.872397 295.134864 
L 277.151736 295.148415 
L 280.431074 295.161658 
L 283.710413 295.174604 
L 286.989752 295.187258 
L 290.269091 295.199631 
L 293.54843 295.211727 
L 296.827769 295.223556 
L 300.107107 295.235123 
L 303.386446 295.246436 
L 306.665785 295.257501 
L 309.945124 295.268325 
L 313.224463 295.278913 
L 316.503802 295.289272 
L 319.78314 295.299407 
L 323.062479 295.309325 
L 326.341818 295.319029 
L 329.621157 295.328527 
L 332.900496 295.337822 
L 336.179835 295.34692 
L 339.459174 295.355826 
L 342.738512 295.364544 
L 346.017851 295.37308 
L 349.29719 295.381436 
L 352.576529 295.389618 
L 355.855868 295.39763 
L 359.135207 295.405476 
L 362.414545 295.41316 
L 365.693884 295.420685 
L 368.973223 295.428056 
L 372.252562 295.435276 
L 375.531901 295.442348 
L 378.81124 295.449276 
L 382.090579 295.456064 
L 385.369917 295.462714 
L 388.649256 295.469229 
L 391.928595 295.475613 
L 395.207934 295.481869 
L 398.487273 295.488 
" style="fill:none;stroke:#1f77b4;stroke-linecap:square;stroke-width:1.5;"/>
   </g>
   <g id="line2d_14">
    <path clip-path="url(#pe3b612b037)" d="M 73.832727 293.084817 
L 77.112066 293.036752 
L 80.391405 293.022333 
L 83.670744 293.01272 
L 86.950083 292.993494 
L 90.229421 292.91659 
L 93.50876 292.955042 
L 96.788099 292.926203 
L 100.067438 292.878138 
L 103.346777 292.892558 
L 106.626116 292.844493 
L 109.905455 292.767589 
L 113.184793 292.757976 
L 116.464132 292.724331 
L 119.743471 292.714718 
L 123.02281 292.633007 
L 126.302149 292.685879 
L 129.581488 292.527265 
L 132.860826 292.584942 
L 136.140165 292.536878 
L 139.419504 292.608975 
L 142.698843 292.440748 
L 145.978182 292.363844 
L 149.257521 292.339812 
L 152.53686 292.306166 
L 155.816198 292.344618 
L 159.095537 292.402296 
L 162.374876 292.234069 
L 165.654215 292.012971 
L 168.933554 292.089874 
L 172.212893 291.964906 
L 175.492231 292.070648 
L 178.77157 291.859163 
L 182.050909 291.897615 
L 185.330248 291.638065 
L 188.609587 291.772646 
L 191.888926 291.714968 
L 195.168264 291.844744 
L 198.447603 291.642871 
L 201.726942 291.503483 
L 205.006281 291.224707 
L 208.28562 291.421773 
L 211.564959 291.474644 
L 214.844298 291.368901 
L 218.123636 291.258352 
L 221.402975 290.998802 
L 224.682314 291.162223 
L 227.961653 291.027641 
L 231.240992 290.998802 
L 234.520331 290.78251 
L 237.799669 290.633509 
L 241.079008 290.460476 
L 244.358347 290.542186 
L 247.637686 290.474895 
L 250.917025 290.210538 
L 254.196364 290.518153 
L 257.475702 290.056731 
L 260.755041 289.446307 
L 264.03438 289.917343 
L 267.313719 289.686631 
L 270.593058 289.340564 
L 273.872397 288.941626 
L 277.151736 288.82627 
L 280.431074 288.706108 
L 283.710413 288.364848 
L 286.989752 288.730141 
L 290.269091 287.970716 
L 293.54843 288.143749 
L 296.827769 287.422776 
L 300.107107 287.398744 
L 303.386446 287.317034 
L 306.665785 287.206484 
L 309.945124 286.831579 
L 313.224463 286.201929 
L 316.503802 285.971218 
L 319.78314 285.54344 
L 323.062479 285.778958 
L 326.341818 284.76479 
L 329.621157 284.365851 
L 332.900496 283.77946 
L 336.179835 284.000558 
L 339.459174 282.217352 
L 342.738512 280.717728 
L 346.017851 281.808801 
L 349.29719 279.790076 
L 352.576529 279.040265 
L 355.855868 276.805248 
L 359.135207 274.733653 
L 362.414545 275.233528 
L 365.693884 270.782721 
L 368.973223 267.571989 
L 372.252562 265.139907 
L 375.531901 261.015942 
L 378.81124 256.368069 
L 382.090579 250.883869 
L 385.369917 240.996927 
L 388.649256 216.027231 
L 391.928595 169.380283 
L 395.207934 53.568 
" style="fill:none;stroke:#ff7f0e;stroke-linecap:square;stroke-width:1.5;"/>
   </g>
   <g id="patch_3">
    <path d="M 57.6 307.584 
L 57.6 41.472 
" style="fill:none;stroke:#000000;stroke-linecap:square;stroke-linejoin:miter;stroke-width:0.8;"/>
   </g>
   <g id="patch_4">
    <path d="M 414.72 307.584 
L 414.72 41.472 
" style="fill:none;stroke:#000000;stroke-linecap:square;stroke-linejoin:miter;stroke-width:0.8;"/>
   </g>
   <g id="patch_5">
    <path d="M 57.6 307.584 
L 414.72 307.584 
" style="fill:none;stroke:#000000;stroke-linecap:square;stroke-linejoin:miter;stroke-width:0.8;"/>
   </g>
   <g id="patch_6">
    <path d="M 57.6 41.472 
L 414.72 41.472 
" style="fill:none;stroke:#000000;stroke-linecap:square;stroke-linejoin:miter;stroke-width:0.8;"/>
   </g>
   <g id="text_15">
    <text style="font-family:DejaVu Sans;font-size:12px;font-style:normal;font-weight:normal;text-anchor:middle;" transform="rotate(-0, 236.16, 35.472)" x="236.16" y="35.472">Coin Flips for 1/(1+x)</text>
   </g>
   <g id="legend_1">
    <g id="patch_7">
     <path d="M 64.6 78.82825 
L 297.284375 78.82825 
Q 299.284375 78.82825 299.284375 76.82825 
L 299.284375 48.472 
Q 299.284375 46.472 297.284375 46.472 
L 64.6 46.472 
Q 62.6 46.472 62.6 48.472 
L 62.6 76.82825 
Q 62.6 78.82825 64.6 78.82825 
z
" style="fill:#ffffff;opacity:0.8;stroke:#cccccc;stroke-linejoin:miter;"/>
    </g>
    <g id="line2d_15">
     <path d="M 66.6 54.570437 
L 86.6 54.570437 
" style="fill:none;stroke:#1f77b4;stroke-linecap:square;stroke-width:1.5;"/>
    </g>
    <g id="line2d_16"/>
    <g id="text_16">
     <text style="font-family:DejaVu Sans;font-size:10px;font-style:normal;font-weight:normal;text-anchor:start;" transform="rotate(-0, 94.6, 58.070437)" x="94.6" y="58.070437">Coin Flip Lower Bound (Mendo)</text>
    </g>
    <g id="line2d_17">
     <path d="M 66.6 69.248562 
L 86.6 69.248562 
" style="fill:none;stroke:#ff7f0e;stroke-linecap:square;stroke-width:1.5;"/>
    </g>
    <g id="line2d_18"/>
    <g id="text_17">
     <text style="font-family:DejaVu Sans;font-size:10px;font-style:normal;font-weight:normal;text-anchor:start;" transform="rotate(-0, 94.6, 72.748562)" x="94.6" y="72.748562">Avg. Coins Flipped 1/(1+x) (Even Parity)</text>
    </g>
   </g>
  </g>
 </g>
 <defs>
  <clipPath id="pe3b612b037">
   <rect height="266.112" width="357.12" x="57.6" y="41.472"/>
  </clipPath>
 </defs>
</svg>

<svg height="460.8" viewBox="0 0 460.8 345.6" width="614.4" xmlns="http://www.w3.org/2000/svg" xmlns:xlink="http://www.w3.org/1999/xlink"><defs><style>*{stroke-linecap:butt;stroke-linejoin:round}</style></defs><g id="figure_1"><path d="M0 345.6h460.8V0H0z" fill="#fff" id="patch_1"/><g id="axes_1"><path d="M57.6 307.584h357.12V41.472H57.6z" fill="#fff" id="patch_2"/><g id="matplotlib.axis_1"><g id="xtick_1"><g id="line2d_1"><defs><path d="M0 0v3.5" id="m64ac597bd7" stroke="#000" stroke-width=".8"/></defs><use x="73.8" xlink:href="#m64ac597bd7" y="307.584" stroke="#000" stroke-width=".8"/></g><text x="73.8" y="322.182" font-family="DejaVu Sans" font-size="10" font-weight="400" text-anchor="middle" id="text_1">0.0</text></g><g id="xtick_2"><use x="138.744" xlink:href="#m64ac597bd7" y="307.584" stroke="#000" stroke-width=".8" id="line2d_2"/><text x="138.744" y="322.182" font-family="DejaVu Sans" font-size="10" font-weight="400" text-anchor="middle" id="text_2">0.2</text></g><g id="xtick_3"><use x="203.688" xlink:href="#m64ac597bd7" y="307.584" stroke="#000" stroke-width=".8" id="line2d_3"/><text x="203.688" y="322.182" font-family="DejaVu Sans" font-size="10" font-weight="400" text-anchor="middle" id="text_3">0.4</text></g><g id="xtick_4"><use x="268.632" xlink:href="#m64ac597bd7" y="307.584" stroke="#000" stroke-width=".8" id="line2d_4"/><text x="268.632" y="322.182" font-family="DejaVu Sans" font-size="10" font-weight="400" text-anchor="middle" id="text_4">0.6</text></g><g id="xtick_5"><use x="333.576" xlink:href="#m64ac597bd7" y="307.584" stroke="#000" stroke-width=".8" id="line2d_5"/><text x="333.576" y="322.182" font-family="DejaVu Sans" font-size="10" font-weight="400" text-anchor="middle" id="text_5">0.8</text></g><g id="xtick_6"><use x="398.52" xlink:href="#m64ac597bd7" y="307.584" stroke="#000" stroke-width=".8" id="line2d_6"/><text x="398.52" y="322.182" font-family="DejaVu Sans" font-size="10" font-weight="400" text-anchor="middle" id="text_6">1.0</text></g><text x="236.16" y="335.861" font-family="DejaVu Sans" font-size="10" font-weight="400" text-anchor="middle" id="text_7">Input Coin&apos;s Heads Probability (λ)</text></g><g id="matplotlib.axis_2"><g id="ytick_1"><g id="line2d_7"><defs><path d="M0 0h-3.5" id="m493b72b8b2" stroke="#000" stroke-width=".8"/></defs><use x="57.6" xlink:href="#m493b72b8b2" y="295.488" stroke="#000" stroke-width=".8"/></g><text x="50.6" y="299.287" font-family="DejaVu Sans" font-size="10" font-weight="400" text-anchor="end" id="text_8">0</text></g><g id="ytick_2"><use x="57.6" xlink:href="#m493b72b8b2" y="247.423" stroke="#000" stroke-width=".8" id="line2d_8"/><text x="50.6" y="251.222" font-family="DejaVu Sans" font-size="10" font-weight="400" text-anchor="end" id="text_9">20</text></g><g id="ytick_3"><use x="57.6" xlink:href="#m493b72b8b2" y="199.358" stroke="#000" stroke-width=".8" id="line2d_9"/><text x="50.6" y="203.158" font-family="DejaVu Sans" font-size="10" font-weight="400" text-anchor="end" id="text_10">40</text></g><g id="ytick_4"><use x="57.6" xlink:href="#m493b72b8b2" y="151.293" stroke="#000" stroke-width=".8" id="line2d_10"/><text x="50.6" y="155.093" font-family="DejaVu Sans" font-size="10" font-weight="400" text-anchor="end" id="text_11">60</text></g><g id="ytick_5"><use x="57.6" xlink:href="#m493b72b8b2" y="103.229" stroke="#000" stroke-width=".8" id="line2d_11"/><text x="50.6" y="107.028" font-family="DejaVu Sans" font-size="10" font-weight="400" text-anchor="end" id="text_12">80</text></g><g id="ytick_6"><use x="57.6" xlink:href="#m493b72b8b2" y="55.164" stroke="#000" stroke-width=".8" id="line2d_12"/><text x="50.6" y="58.963" font-family="DejaVu Sans" font-size="10" font-weight="400" text-anchor="end" id="text_13">100</text></g><text transform="rotate(-90 25.433 174.528)" x="25.433" y="174.528" font-family="DejaVu Sans" font-size="10" font-weight="400" text-anchor="middle" id="text_14">Coin Flips Needed</text></g><path clip-path="url(#pe3b612b037)" d="M73.833 293.086l3.28.071 3.278.07 3.28.066 3.28.065 3.278.063 3.28.06 3.28.06 3.278.056 3.28.056 3.28.053 3.278.052 3.28.05 3.28.05 3.278.047 3.28.046 3.28.044 3.278.043 3.28.043 3.28.04 3.279.04 3.279.039 3.28.037 3.279.036 3.279.036 3.28.034 3.279.034 3.279.032 3.28.032 3.279.03 3.279.03 3.28.03 3.279.028 3.279.028 3.28.027 3.279.026 3.279.026 3.28.025 3.279.024 3.279.024 3.28.023 3.279.022 3.279.022 3.28.021 3.279.021 3.279.02 3.28.02 3.279.02 3.279.019 3.28.018 3.279.018 3.279.017 3.28.018 3.279.016 3.279.017 3.28.016 3.279.015 3.279.015 3.28.015 3.279.015 3.28.014 3.278.014 3.28.013 3.28.014 3.278.013 3.28.012 3.28.013 3.278.012 3.28.012 3.28.011 3.278.011 3.28.012 3.28.01 3.278.01 3.28.011 3.28.01 3.278.01 3.28.01 3.28.01 3.278.009 3.28.009 3.28.009 3.279.009 3.279.008 3.28.008 3.279.009 3.279.008 3.28.007 3.279.008 3.279.008 3.28.007 3.279.007 3.279.007 3.28.007 3.279.007 3.279.007 3.28.006 3.279.007 3.279.006 3.28.006" fill="none" stroke="#1f77b4" stroke-linecap="square" stroke-width="1.5" id="line2d_13"/><path clip-path="url(#pe3b612b037)" d="M73.833 293.085l3.28-.048 3.278-.015 3.28-.01 3.28-.019 3.278-.076 3.28.038 3.28-.029 3.278-.048 3.28.015 3.28-.049 3.278-.076 3.28-.01 3.28-.034 3.278-.01 3.28-.081 3.28.053 3.278-.159 3.28.058 3.28-.048 3.279.072 3.279-.168 3.28-.077 3.279-.024 3.279-.034 3.28.039 3.279.057 3.279-.168 3.28-.221 3.279.077 3.279-.125 3.28.106 3.279-.212 3.279.039 3.28-.26 3.279.135 3.279-.058 3.28.13 3.279-.202 3.279-.14 3.28-.278 3.279.197 3.279.053 3.28-.106 3.279-.11 3.279-.26 3.28.163 3.279-.134 3.279-.03 3.28-.215 3.279-.15 3.279-.173 3.28.082 3.279-.067 3.279-.264 3.28.307 3.279-.461 3.279-.61 3.28.47 3.279-.23 3.28-.346 3.278-.4 3.28-.115 3.28-.12 3.278-.341 3.28.365 3.28-.76 3.278.174 3.28-.721 3.28-.024 3.278-.082 3.28-.11 3.28-.375 3.278-.63 3.28-.23 3.28-.429 3.278.236 3.28-1.014 3.28-.4 3.278-.586 3.28.222 3.28-1.784 3.279-1.5 3.279 1.092 3.28-2.019 3.279-.75 3.279-2.235 3.28-2.071 3.279.5 3.279-4.451 3.28-3.211 3.279-2.432 3.279-4.124 3.28-4.648 3.279-5.484 3.279-9.887 3.28-24.97 3.279-46.647 3.279-115.812" fill="none" stroke="#ff7f0e" stroke-linecap="square" stroke-width="1.5" id="line2d_14"/><path d="M57.6 307.584V41.472" fill="none" stroke="#000" stroke-linecap="square" stroke-width=".8" id="patch_3"/><path d="M414.72 307.584V41.472" fill="none" stroke="#000" stroke-linecap="square" stroke-width=".8" id="patch_4"/><path d="M57.6 307.584h357.12" fill="none" stroke="#000" stroke-linecap="square" stroke-width=".8" id="patch_5"/><path d="M57.6 41.472h357.12" fill="none" stroke="#000" stroke-linecap="square" stroke-width=".8" id="patch_6"/><text x="236.16" y="35.472" font-family="DejaVu Sans" font-size="12" font-weight="400" text-anchor="middle" id="text_15">Coin Flips for 1/(1+x)</text><g id="legend_1"><path d="M64.6 78.828h232.684q2 0 2-2V48.472q0-2-2-2H64.6q-2 0-2 2v28.356q0 2 2 2z" fill="#fff" opacity=".8" stroke="#ccc" id="patch_7"/><path d="M66.6 54.57h20" fill="none" stroke="#1f77b4" stroke-linecap="square" stroke-width="1.5" id="line2d_15"/><text x="94.6" y="58.07" font-family="DejaVu Sans" font-size="10" font-weight="400" id="text_16">Coin Flip Lower Bound (Mendo)</text><path d="M66.6 69.249h20" fill="none" stroke="#ff7f0e" stroke-linecap="square" stroke-width="1.5" id="line2d_17"/><text x="94.6" y="72.749" font-family="DejaVu Sans" font-size="10" font-weight="400" id="text_17">Avg. Coins Flipped 1/(1+x) (Even Parity)</text></g></g></g><defs><clipPath id="pe3b612b037"><path d="M57.6 41.472h357.12v266.112H57.6z"/></clipPath></defs></svg>
